static/img/icons/linkarrowblue.svg

<svg fill="none" viewBox=".38 .25 11.69 10.18" xmlns="http://www.w3.org/2000/svg"><path d="m6.98242 10.4367 5.09088-5.09091-5.09088-5.090907-.875.874997 3.60231 3.59091h-9.329588v1.25h9.329588l-3.60231 3.60227z" fill="#474dff"/></svg>

<svg width="13" height="11" viewBox="0 0 13 11" fill="none" xmlns="http://www.w3.org/2000/svg">
<path d="M6.98242 10.4367L12.0733 5.34579L6.98242 0.254883L6.10742 1.12988L9.70973 4.72079H0.380142V5.97079H9.70973L6.10742 9.57306L6.98242 10.4367Z" fill="#474DFF"/>
</svg>
